_art/var/star_filled.svg

<?xml version="1.0" encoding="utf-8"?>
<!-- Generator: Adobe Illustrator 16.0.3, SVG Export Plug-In . SVG Version: 6.00 Build 0)  -->
<!DOCTYPE svg PUBLIC "-//W3C//DTD SVG 1.0//EN" "http://www.w3.org/TR/2001/REC-SVG-20010904/DTD/svg10.dtd">
<svg version="1.0" id="Ebene_1" xmlns="http://www.w3.org/2000/svg" xmlns:xlink="http://www.w3.org/1999/xlink" x="0px" y="0px"
	 width="21.775px" height="20.762px" viewBox="0 0 21.775 20.762" enable-background="new 0 0 21.775 20.762" xml:space="preserve">
<path fill="#888888" d="M8.71,2.076c-0.182,0-0.363,0.14-0.501,0.419L6.35,6.261c-0.276,0.56-1.008,1.091-1.624,1.18L0.572,8.045
	C-0.046,8.135-0.185,8.564,0.262,9l3.007,2.931c0.446,0.437,0.726,1.295,0.62,1.909l-0.71,4.14
	c-0.077,0.446,0.094,0.708,0.404,0.708c0.118,0,0.255-0.038,0.407-0.117l3.717-1.956c0.276-0.145,0.641-0.216,1.003-0.216
	c0.364,0,0.729,0.072,1.004,0.216l3.718,1.956c0.149,0.079,0.289,0.117,0.406,0.117c0.312,0,0.481-0.262,0.405-0.708l-0.711-4.14
	c-0.104-0.614,0.174-1.474,0.619-1.909L17.16,9c0.446-0.437,0.307-0.865-0.311-0.955l-4.154-0.604
	c-0.617-0.089-1.349-0.62-1.624-1.18L9.213,2.495C9.074,2.216,8.893,2.076,8.71,2.076L8.71,2.076z"/>
</svg>

<svg width="22" height="21" viewBox="0 0 22 21" fill="none" xmlns="http://www.w3.org/2000/svg">
<path d="M8.71 2.076C8.528 2.076 8.347 2.216 8.209 2.495L6.35 6.261C6.074 6.821 5.342 7.352 4.726 7.441L0.571998 8.045C-0.0460017 8.135 -0.185002 8.564 0.261998 9L3.269 11.931C3.715 12.368 3.995 13.226 3.889 13.84L3.179 17.98C3.102 18.426 3.273 18.688 3.583 18.688C3.701 18.688 3.838 18.65 3.99 18.571L7.707 16.615C7.983 16.47 8.348 16.399 8.71 16.399C9.074 16.399 9.439 16.471 9.714 16.615L13.432 18.571C13.581 18.65 13.721 18.688 13.838 18.688C14.15 18.688 14.319 18.426 14.243 17.98L13.532 13.84C13.428 13.226 13.706 12.366 14.151 11.931L17.16 9C17.606 8.563 17.467 8.135 16.849 8.045L12.695 7.441C12.078 7.352 11.346 6.821 11.071 6.261L9.213 2.495C9.074 2.216 8.893 2.076 8.71 2.076Z" fill="#C7C4EE"/>
</svg>
